;FLAVOR:Marlin
;TIME:11137
;Filament used: 8.52921m
;Layer height: 0.2
;MINX:44.997
;MINY:53.042
;MINZ:0.2
;MAXX:198.483
;MAXY:175.885
;MAXZ:11
;Generated with Cura_SteamEngine 4.8.0
M82 ;absolute extrusion mode
; Script based on an original created by tjjfvi (https://github.com/tjjfvi)
; An up-to-date version of the tjjfvi's original script can be found
; here:  https://csi.t6.fyi/
; Note - This script will only work in Cura V4.2 and above!
; --- Global Settings
; layer_height = 0.2
; smooth_spiralized_contours = True
; magic_mesh_surface_mode = normal
; machine_extruder_count = 1
; --- Single Extruder Settings
; speed_z_hop = 5
; retraction_amount = 6.5
; retraction_hop = 0.2
; retraction_hop_enabled = False
; retraction_enable = True
; retraction_speed = 25
; retraction_retract_speed = 25
; retraction_prime_speed = 25
; speed_travel = 150.0

; Preamble
M201 X500.00 Y500.00 Z100.00 E5000.00 ;Setup machine max acceleration
M203 X500.00 Y500.00 Z10.00 E50.00 ;Setup machine max feedrate
M204 P500.00 R1000.00 T500.00 ;Setup Print/Retract/Travel acceleration
M205 X8.00 Y8.00 Z0.40 E5.00 ;Setup Jerk
M220 S100 ;Reset Feedrate
M221 S100 ;Reset Flowrate

; Heat nozzle just enough to accurately home without drooping
M140 S50
M104 S120
M190 S50
M109 S120
M105

; - Home - this is used with the strain gauge as a zero position for the Z-offset
G28
M420 S1 ;Ensure bed levelling is on

; Now we know the positions we can move out of the way and happily droop at the side of the bed
M104 S200      ; You can also use material_print_temperature here
M140 S60  ; Or use material_bed_temperature
M105

G0 Z20
G0 X0 Y0

; Now wait for the temperatures to reach
M190 R60      ; You can also use material_bed_temperature here
M109 S200    ; Or use material_print_temperature
M105

; And we can now draw our purge line
G92 E0 ;Reset Extruder
G1 Z2.0 F3000 ;Move Z Axis up
G1 X10.1 Y20 Z0.28 F5000.0 ;Move to start position
G1 X10.1 Y200.0 Z0.28 F1500.0 E15 ;Draw the first line
G1 X10.4 Y200.0 Z0.28 F5000.0 ;Move to side a little
G1 X10.4 Y20 Z0.28 F1500.0 E30 ;Draw the second line
G92 E0 ;Reset Extruder
G1 Z2.0 F3000 ;Move Z Axis up

G92 E0
G92 E0
G1 F1500 E-6.5
;LAYER_COUNT:55
;LAYER:0
M107
G0 F6000 X48.883 Y55.669 Z0.2
;TYPE:SKIRT
G1 F1500 E0
G1 F1200 X49.623 Y55.093 E0.03119
G1 X50.409 Y54.581 E0.06239
G1 X51.236 Y54.139 E0.09358
G1 X52.098 Y53.769 E0.12478
G1 X52.988 Y53.473 E0.15597
G1 X53.9 Y53.255 E0.18716
G1 X54.827 Y53.114 E0.21835
G1 X55.698 Y53.055 E0.24738
G1 X56.019 Y53.046 E0.25806
G1 X56.327 Y53.042 E0.26831
G1 X186.776 Y53.042 E4.60706
G1 X187.632 Y53.053 E4.63553
G1 X188.568 Y53.107 E4.66672
G1 X189.496 Y53.239 E4.69789
G1 X190.41 Y53.451 E4.7291
G1 X191.302 Y53.74 E4.76029
G1 X192.167 Y54.103 E4.79149
G1 X192.997 Y54.539 E4.82267
G1 X193.788 Y55.044 E4.85388
G1 X194.532 Y55.615 E4.88508
G1 X195.225 Y56.247 E4.91627
G1 X195.862 Y56.935 E4.94746
G1 X196.437 Y57.676 E4.97865
G1 X196.948 Y58.462 E5.00983
G1 X197.39 Y59.29 E5.04105
G1 X197.759 Y60.152 E5.07224
G1 X198.054 Y61.042 E5.10342
G1 X198.272 Y61.954 E5.13461
G1 X198.412 Y62.882 E5.16583
G1 X198.47 Y63.743 E5.19453
G1 X198.479 Y64.063 E5.20517
G1 X198.483 Y64.372 E5.21545
G1 X198.483 Y164.284 E8.53854
G1 X198.474 Y165.012 E8.56275
G1 X198.423 Y165.948 E8.59393
G1 X198.291 Y166.877 E8.62514
G1 X198.082 Y167.791 E8.65633
G1 X197.795 Y168.684 E8.68752
G1 X197.433 Y169.549 E8.71871
G1 X196.999 Y170.381 E8.74992
G1 X196.495 Y171.172 E8.78112
G1 X195.926 Y171.917 E8.8123
G1 X195.295 Y172.612 E8.84352
G1 X194.608 Y173.25 E8.8747
G1 X193.869 Y173.827 E8.90589
G1 X193.083 Y174.339 E8.93709
G1 X192.257 Y174.782 E8.96826
G1 X191.395 Y175.154 E8.99949
G1 X190.506 Y175.45 E9.03065
G1 X189.594 Y175.67 E9.06185
G1 X188.667 Y175.811 E9.09304
G1 X187.784 Y175.872 E9.12248
G1 X187.464 Y175.881 E9.13313
G1 X187.155 Y175.885 E9.14341
G1 X56.545 Y175.883 E13.48751
G1 X55.85 Y175.873 E13.51063
G1 X54.913 Y175.819 E13.54185
G1 X53.985 Y175.686 E13.57303
G1 X53.071 Y175.475 E13.60423
G1 X52.179 Y175.186 E13.63541
G1 X51.314 Y174.822 E13.66663
G1 X50.484 Y174.386 E13.69781
G1 X49.694 Y173.881 E13.72899
G1 X48.95 Y173.311 E13.76017
G1 X48.257 Y172.679 E13.79136
G1 X47.62 Y171.99 E13.82257
G1 X47.044 Y171.25 E13.85376
G1 X46.534 Y170.463 E13.88495
G1 X46.092 Y169.636 E13.91614
G1 X45.722 Y168.774 E13.94734
G1 X45.428 Y167.883 E13.97855
G1 X45.21 Y166.971 E14.00973
G1 X45.07 Y166.044 E14.04092
G1 X45.014 Y165.238 E14.06779
G1 X45.003 Y164.906 E14.07884
G1 X44.997 Y164.542 E14.09095
G1 X44.998 Y64.567 E17.41613
G1 X45.007 Y63.902 E17.43825
G1 X45.06 Y62.966 E17.46943
G1 X45.192 Y62.037 E17.50064
G1 X45.403 Y61.123 E17.53184
G1 X45.691 Y60.231 E17.56301
G1 X46.054 Y59.366 E17.59421
G1 X46.489 Y58.535 E17.62541
G1 X46.993 Y57.745 E17.65658
G1 X47.563 Y57 E17.68778
G1 X48.195 Y56.306 E17.719
G1 X48.883 Y55.669 E17.75018
G0 F6000 X49.271 Y55.865
G1 F1200 X50.007 Y55.312 E17.7808
G1 X50.788 Y54.824 E17.81143
G1 X51.608 Y54.406 E17.84204
G1 X52.462 Y54.061 E17.87268
G1 X53.342 Y53.791 E17.90329
G1 X54.242 Y53.599 E17.9339
G1 X55.156 Y53.485 E17.96454
G1 X55.709 Y53.455 E17.98296
G1 X56.03 Y53.446 E17.99364
G1 X56.327 Y53.442 E18.00352
G1 X186.776 Y53.442 E22.34227
G1 X187.626 Y53.453 E22.37054
G1 X188.545 Y53.506 E22.40116
G1 X189.456 Y53.639 E22.43178
G1 X190.352 Y53.85 E22.4624
G1 X191.226 Y54.138 E22.493
G1 X192.073 Y54.501 E22.52365
G1 X192.884 Y54.936 E22.55426
G1 X193.654 Y55.44 E22.58487
G1 X194.378 Y56.009 E22.6155
G1 X195.05 Y56.639 E22.64613
G1 X195.665 Y57.324 E22.67675
G1 X196.218 Y58.06 E22.70737
G1 X196.705 Y58.841 E22.73798
G1 X197.122 Y59.662 E22.76861
G1 X197.467 Y60.516 E22.79925
G1 X197.736 Y61.396 E22.82985
G1 X197.928 Y62.297 E22.86049
G1 X198.041 Y63.21 E22.89109
G1 X198.07 Y63.754 E22.90921
G1 X198.079 Y64.074 E22.91986
G1 X198.083 Y64.372 E22.92977
G1 X198.083 Y164.279 E26.25269
G1 X198.074 Y165.007 E26.2769
G1 X198.023 Y165.926 E26.30752
G1 X197.892 Y166.838 E26.33816
G1 X197.682 Y167.734 E26.36877
G1 X197.396 Y168.609 E26.39939
G1 X197.035 Y169.456 E26.43001
G1 X196.601 Y170.268 E26.46064
G1 X196.099 Y171.04 E26.49126
G1 X195.531 Y171.765 E26.5219
G1 X194.903 Y172.438 E26.55251
G1 X194.219 Y173.054 E26.58313
G1 X193.484 Y173.608 E26.61374
G1 X192.704 Y174.097 E26.64436
G1 X191.884 Y174.516 E26.67499
G1 X191.031 Y174.862 E26.7056
G1 X190.151 Y175.133 E26.73623
G1 X189.251 Y175.326 E26.76684
G1 X188.337 Y175.441 E26.79748
G1 X187.773 Y175.472 E26.81627
G1 X187.453 Y175.481 E26.82692
G1 X187.155 Y175.485 E26.83683
G1 X56.55 Y175.483 E31.18077
G1 X55.855 Y175.473 E31.20389
G1 X54.936 Y175.42 E31.2345
G1 X54.025 Y175.287 E31.26513
G1 X53.129 Y175.076 E31.29574
G1 X52.255 Y174.787 E31.32636
G1 X51.409 Y174.424 E31.35698
G1 X50.598 Y173.989 E31.38759
G1 X49.827 Y173.485 E31.41822
G1 X49.103 Y172.917 E31.44883
G1 X48.431 Y172.287 E31.47947
G1 X47.817 Y171.602 E31.51006
G1 X47.264 Y170.865 E31.54071
G1 X46.777 Y170.084 E31.57132
G1 X46.36 Y169.263 E31.60195
G1 X46.015 Y168.41 E31.63255
G1 X45.746 Y167.529 E31.66319
G1 X45.554 Y166.629 E31.6938
G1 X45.441 Y165.715 E31.72443
G1 X45.414 Y165.225 E31.74075
G1 X45.403 Y164.893 E31.7518
G1 X45.397 Y164.542 E31.76348
G1 X45.398 Y64.573 E35.08846
G1 X45.407 Y63.908 E35.11058
G1 X45.459 Y62.988 E35.14123
G1 X45.591 Y62.077 E35.17184
G1 X45.802 Y61.181 E35.20246
G1 X46.089 Y60.306 E35.23309
G1 X46.452 Y59.46 E35.26371
G1 X46.886 Y58.648 E35.29433
G1 X47.389 Y57.877 E35.32495
G1 X47.958 Y57.153 E35.35557
G1 X48.586 Y56.481 E35.38617
G1 X49.271 Y55.865 E35.41681
G0 F6000 X49.659 Y56.066
G1 F1200 X50.391 Y55.536 E35.44686
G1 X51.166 Y55.073 E35.47689
G1 X51.979 Y54.68 E35.50692
G1 X52.824 Y54.36 E35.53698
G1 X53.693 Y54.117 E35.56699
G1 X54.581 Y53.951 E35.59704
G1 X55.72 Y53.855 E35.63505
G1 X56.041 Y53.846 E35.64573
G1 X56.327 Y53.842 E35.65525
G1 X186.776 Y53.842 E39.994
G1 X187.62 Y53.853 E40.02207
G1 X188.522 Y53.906 E40.05213
G1 X189.415 Y54.038 E40.08215
G1 X190.293 Y54.249 E40.11218
G1 X191.149 Y54.537 E40.14222
G1 X191.976 Y54.899 E40.17225
G1 X192.768 Y55.334 E40.2023
G1 X193.519 Y55.836 E40.23235
G1 X194.222 Y56.403 E40.26239
G1 X194.872 Y57.03 E40.29242
G1 X195.464 Y57.712 E40.32246
G1 X195.994 Y58.443 E40.35249
G1 X196.456 Y59.219 E40.38253
G1 X196.849 Y60.032 E40.41256
G1 X197.167 Y60.877 E40.44259
G1 X197.41 Y61.747 E40.47264
G1 X197.575 Y62.635 E40.50268
G1 X197.67 Y63.765 E40.54039
G1 X197.679 Y64.085 E40.55104
G1 X197.683 Y64.372 E40.56059
G1 X197.683 Y164.274 E43.88334
G1 X197.674 Y165.002 E43.90756
G1 X197.623 Y165.904 E43.93761
G1 X197.492 Y166.797 E43.96763
G1 X197.283 Y167.676 E43.99768
G1 X196.997 Y168.532 E44.02769
G1 X196.636 Y169.36 E44.05774
G1 X196.204 Y170.153 E44.08777
G1 X195.703 Y170.905 E44.11783
G1 X195.137 Y171.609 E44.14787
G1 X194.512 Y172.26 E44.17789
G1 X193.831 Y172.854 E44.20794
G1 X193.1 Y173.384 E44.23797
G1 X192.326 Y173.849 E44.268
G1 X191.513 Y174.243 E44.29805
G1 X190.669 Y174.563 E44.32807
G1 X189.799 Y174.808 E44.35814
G1 X188.912 Y174.974 E44.38815
G1 X187.762 Y175.072 E44.42654
G1 X187.442 Y175.081 E44.43719
G1 X187.155 Y175.085 E44.44673
G1 X56.556 Y175.083 E48.79047
G1 X55.861 Y175.073 E48.81359
G1 X54.96 Y175.02 E48.84361
G1 X54.066 Y174.887 E48.87367
G1 X53.188 Y174.677 E48.9037
G1 X52.332 Y174.389 E48.93374
G1 X51.505 Y174.026 E48.96378
G1 X50.713 Y173.592 E48.99381
G1 X49.963 Y173.09 E49.02383
G1 X49.26 Y172.523 E49.05387
G1 X48.61 Y171.896 E49.08391
G1 X48.018 Y171.214 E49.11395
G1 X47.488 Y170.482 E49.144
G1 X47.025 Y169.707 E49.17403
G1 X46.633 Y168.893 E49.20408
G1 X46.314 Y168.048 E49.23412
G1 X46.072 Y167.178 E49.26416
G1 X45.907 Y166.29 E49.2942
G1 X45.814 Y165.212 E49.33018
G1 X45.803 Y164.88 E49.34123
G1 X45.797 Y164.542 E49.35248
G1 X45.798 Y64.578 E52.67729
G1 X45.807 Y63.913 E52.69941
G1 X45.859 Y63.011 E52.72946
G1 X45.991 Y62.118 E52.75949
G1 X46.201 Y61.24 E52.78951
G1 X46.488 Y60.383 E52.81957
G1 X46.85 Y59.556 E52.8496
G1 X47.283 Y58.764 E52.87962
G1 X47.785 Y58.013 E52.90966
G1 X48.352 Y57.309 E52.93973
G1 X48.978 Y56.659 E52.96974
G1 X49.659 Y56.066 E52.99978
G1 F1500 E46.49978
;MESH:Flush_Baby_Breakout_Board_Lid_Final.stl
G0 F6000 X73.758 Y79.306
G0 X73.758 Y77.871
G0 X147.033 Y78.213
G0 X147.006 Y149.781
;TYPE:WALL-INNER
G1 F1500 E52.99978
G1 F1200 X147.205 Y149.781 E53.0064
G1 X147.205 Y149.582 E53.01068
G1 X147.205 Y78.041 E55.39014
G1 X69.893 Y78.041 E57.96155
G1 X69.694 Y78.041 E57.96817
G1 X69.694 Y78.24 E57.97245
G1 X69.695 Y149.78 E60.35188
G1 X147.006 Y149.781 E62.92326
G0 F6000 X146.805 Y149.381
;TYPE:WALL-OUTER
G1 F1200 X146.805 Y78.441 E65.28273
G1 X70.094 Y78.441 E67.83415
G1 X70.095 Y149.38 E70.19359
G1 X146.805 Y149.381 E72.74497
G1 F1500 E66.24497
G0 F6000 X146.804 Y149.68
G0 X113.223 Y149.951
G0 X113.223 Y148.515
G0 X55.332 Y149.97
G0 X56.807 Y149.97
G0 X56.597 Y164.284
;TYPE:WALL-INNER
G1 F1500 E72.74497
G1 F1200 X56.597 Y64.642 E76.05908
G1 X186.883 Y64.642 E80.39241
G1 X186.884 Y164.086 E83.69993
G1 X186.884 Y164.285 E83.70655
G1 X186.685 Y164.285 E83.71083
G1 X56.597 Y164.284 E88.03758
G0 F6000 X56.197 Y164.684
;TYPE:WALL-OUTER
G1 F1200 X56.197 Y64.242 E91.37829
G1 X187.283 Y64.242 E95.73823
G1 X187.284 Y164.685 E99.07898
G1 X56.197 Y164.684 E103.43895
G0 F6000 X56.467 Y164.414
G0 X56.707 Y163.894
G0 X56.987 Y163.894
;TYPE:SKIN
G1 F1200 X56.987 Y65.032 E106.72711
G1 X186.493 Y65.032 E111.0345
G1 X186.494 Y163.895 E114.3227
G1 X56.987 Y163.894 E118.63012
G1 F1500 E112.13012
G0 F6000 X56.707 Y163.894
G0 X56.807 Y149.921
G0 X55.332 Y149.921
G0 X70.959 Y147.852
G0 X69.525 Y147.853
G0 X69.585 Y149.921
G0 X69.305 Y150.17
G1 F1500 E118.63012
G1 F1200 X147.595 Y150.171 E121.23405
G1 X147.595 Y77.651 E123.64608
G1 X69.304 Y77.651 E126.25005
G1 X69.305 Y150.17 E128.66204
G1 F1500 E122.16204
G0 F6000 X69.585 Y149.921
G0 X69.525 Y147.853
G0 X70.959 Y147.852
G0 X55.332 Y149.976
G0 X56.807 Y149.976
G0 X56.779 Y164.102
G0 X57.383 Y164.174
G0 X57.384 Y163.733
G1 F1500 E128.66204
G1 F1200 X57.146 Y163.495 E128.67323
G0 F6000 X57.146 Y162.93
G1 F1200 X57.95 Y163.733 E128.71103
G0 F6000 X58.515 Y163.733
G1 F1200 X57.146 Y162.364 E128.77542
G0 F6000 X57.146 Y161.798
G1 F1200 X59.081 Y163.733 E128.86644
G0 F6000 X59.647 Y163.733
G1 F1200 X57.146 Y161.233 E128.98405
G0 F6000 X57.146 Y160.667
G1 F1200 X60.212 Y163.733 E129.12827
G0 F6000 X60.778 Y163.733
G1 F1200 X57.146 Y160.101 E129.29911
G0 F6000 X57.146 Y159.536
G1 F1200 X61.344 Y163.733 E129.49654
G0 F6000 X61.91 Y163.733
G1 F1200 X57.146 Y158.97 E129.7206
G0 F6000 X57.146 Y158.404
G1 F1200 X62.475 Y163.733 E129.97126
G0 F6000 X63.041 Y163.733
G1 F1200 X57.146 Y157.838 E130.24855
G0 F6000 X57.146 Y157.273
G1 F1200 X63.607 Y163.733 E130.55243
G0 F6000 X64.172 Y163.733
G1 F1200 X57.146 Y156.707 E130.88291
G0 F6000 X57.146 Y156.141
G1 F1200 X64.738 Y163.733 E131.24001
G0 F6000 X65.304 Y163.733
G1 F1200 X57.146 Y155.576 E131.62372
G0 F6000 X57.146 Y155.01
G1 F1200 X65.869 Y163.733 E132.03402
G0 F6000 X66.435 Y163.733
G1 F1200 X57.146 Y154.444 E132.47095
G0 F6000 X57.146 Y153.879
G1 F1200 X67.001 Y163.733 E132.93447
G0 F6000 X67.566 Y163.733
G1 F1200 X57.146 Y153.313 E133.4246
G0 F6000 X57.146 Y152.747
G1 F1200 X68.132 Y163.733 E133.94135
G0 F6000 X68.698 Y163.733
G1 F1200 X57.146 Y152.182 E134.48469
G0 F6000 X57.146 Y151.616
G1 F1200 X69.263 Y163.733 E135.05464
G0 F6000 X69.829 Y163.733
G1 F1200 X57.146 Y151.05 E135.65121
G0 F6000 X57.146 Y150.485
G1 F1200 X70.395 Y163.733 E136.27438
G0 F6000 X70.96 Y163.733
G1 F1200 X57.146 Y149.919 E136.92415
G0 F6000 X57.146 Y149.353
G1 F1200 X71.526 Y163.733 E137.60054
G0 F6000 X72.092 Y163.733
G1 F1200 X57.146 Y148.787 E138.30355
G0 F6000 X57.146 Y148.222
G1 F1200 X72.658 Y163.733 E139.03316
G0 F6000 X73.223 Y163.733
G1 F1200 X57.146 Y147.656 E139.78938
G0 F6000 X57.146 Y147.09
G1 F1200 X73.789 Y163.733 E140.57221
G0 F6000 X74.355 Y163.733
G1 F1200 X57.146 Y146.525 E141.38165
G0 F6000 X57.146 Y145.959
G1 F1200 X74.92 Y163.733 E142.21768
G0 F6000 X75.486 Y163.733
G1 F1200 X57.146 Y145.393 E143.08034
G0 F6000 X57.146 Y144.828
G1 F1200 X76.052 Y163.733 E143.9696
G0 F6000 X76.617 Y163.733
G1 F1200 X57.146 Y144.262 E144.88545
G0 F6000 X57.146 Y143.696
G1 F1200 X77.183 Y163.733 E145.82793
G0 F6000 X77.749 Y163.733
G1 F1200 X57.146 Y143.131 E146.79701
G0 F6000 X57.146 Y142.565
G1 F1200 X78.314 Y163.733 E147.79269
G0 F6000 X78.88 Y163.733
G1 F1200 X57.146 Y141.999 E148.81499
G0 F6000 X57.146 Y141.434
G1 F1200 X79.446 Y163.733 E149.86389
G0 F6000 X80.011 Y163.733
G1 F1200 X57.146 Y140.868 E150.93939
G0 F6000 X57.146 Y140.302
G1 F1200 X80.577 Y163.733 E152.04151
G0 F6000 X81.143 Y163.733
G1 F1200 X57.146 Y139.737 E153.17023
G0 F6000 X57.146 Y139.171
G1 F1200 X81.709 Y163.733 E154.32558
G0 F6000 X82.274 Y163.733
G1 F1200 X57.146 Y138.605 E155.50752
G0 F6000 X57.146 Y138.039
G1 F1200 X69.145 Y150.038 E156.07192
G0 F6000 X69.437 Y150.33
G1 F1200 X82.84 Y163.733 E156.70235
G0 F6000 X83.406 Y163.733
G1 F1200 X70.002 Y150.33 E157.33281
G0 F6000 X70.568 Y150.33
G1 F1200 X83.971 Y163.733 E157.96325
G0 F6000 X84.537 Y163.733
G1 F1200 X71.134 Y150.33 E158.59368
G0 F6000 X71.699 Y150.33
G1 F1200 X85.103 Y163.733 E159.22414
G0 F6000 X85.668 Y163.733
G1 F1200 X72.265 Y150.33 E159.85458
G0 F6000 X72.831 Y150.33
G1 F1200 X86.234 Y163.733 E160.48502
G0 F6000 X86.8 Y163.733
G1 F1200 X73.396 Y150.33 E161.11548
G0 F6000 X73.962 Y150.33
G1 F1200 X87.365 Y163.733 E161.74591
G0 F6000 X87.931 Y163.733
G1 F1200 X74.528 Y150.33 E162.37635
G0 F6000 X75.094 Y150.33
G1 F1200 X88.497 Y163.733 E163.00678
G0 F6000 X89.062 Y163.733
G1 F1200 X75.659 Y150.33 E163.63722
