;FLAVOR:Marlin
;TIME:33781
;Filament used: 23.0392m
;Layer height: 0.2
;MINX:40.98
;MINY:56.25
;MINZ:0.2
;MAXX:194.02
;MAXY:178.75
;MAXZ:32.4
;Generated with Cura_SteamEngine 4.8.0
M82 ;absolute extrusion mode
; Script based on an original created by tjjfvi (https://github.com/tjjfvi)
; An up-to-date version of the tjjfvi's original script can be found
; here:  https://csi.t6.fyi/
; Note - This script will only work in Cura V4.2 and above!
; --- Global Settings
; layer_height = 0.2
; smooth_spiralized_contours = True
; magic_mesh_surface_mode = normal
; machine_extruder_count = 1
; --- Single Extruder Settings
; speed_z_hop = 5
; retraction_amount = 6.5
; retraction_hop = 0.2
; retraction_hop_enabled = False
; retraction_enable = True
; retraction_speed = 25
; retraction_retract_speed = 25
; retraction_prime_speed = 25
; speed_travel = 150.0

; Preamble
M201 X500.00 Y500.00 Z100.00 E5000.00 ;Setup machine max acceleration
M203 X500.00 Y500.00 Z10.00 E50.00 ;Setup machine max feedrate
M204 P500.00 R1000.00 T500.00 ;Setup Print/Retract/Travel acceleration
M205 X8.00 Y8.00 Z0.40 E5.00 ;Setup Jerk
M220 S100 ;Reset Feedrate
M221 S100 ;Reset Flowrate

; Heat nozzle just enough to accurately home without drooping
M140 S50
M104 S120
M190 S50
M109 S120
M105

; - Home - this is used with the strain gauge as a zero position for the Z-offset
G28
M420 S1 ;Ensure bed levelling is on

; Now we know the positions we can move out of the way and happily droop at the side of the bed
M104 S200.0      ; You can also use material_print_temperature here
M140 S70.0  ; Or use material_bed_temperature
M105

G0 Z20
G0 X0 Y0

; Now wait for the temperatures to reach
M190 R70.0      ; You can also use material_bed_temperature here
M109 S200.0    ; Or use material_print_temperature
M105

; And we can now draw our purge line
G92 E0 ;Reset Extruder
G1 Z2.0 F3000 ;Move Z Axis up
G1 X10.1 Y20 Z0.28 F5000.0 ;Move to start position
G1 X10.1 Y200.0 Z0.28 F1500.0 E15 ;Draw the first line
G1 X10.4 Y200.0 Z0.28 F5000.0 ;Move to side a little
G1 X10.4 Y20 Z0.28 F1500.0 E30 ;Draw the second line
G92 E0 ;Reset Extruder
G1 Z2.0 F3000 ;Move Z Axis up
G92 E0
G92 E0
G1 F1500 E-6.5
;LAYER_COUNT:162
;LAYER:0
M107
G0 F6000 X45.041 Y58.81 Z0.2
;TYPE:SKIRT
G1 F1500 E0
G1 F1200 X45.787 Y58.241 E0.03121
G1 X46.578 Y57.737 E0.0624
G1 X47.409 Y57.303 E0.09358
G1 X48.274 Y56.941 E0.12477
G1 X49.167 Y56.654 E0.15597
G1 X50.081 Y56.444 E0.18716
G1 X51.01 Y56.313 E0.21836
G1 X51.759 Y56.265 E0.24333
G1 X52.246 Y56.253 E0.25953
G1 X52.557 Y56.25 E0.26987
G1 X182.213 Y56.25 E4.58225
G1 X183.072 Y56.261 E4.61082
G1 X184.008 Y56.314 E4.642
G1 X184.936 Y56.447 E4.67319
G1 X185.85 Y56.659 E4.70439
G1 X186.743 Y56.947 E4.7356
G1 X187.607 Y57.311 E4.76678
G1 X188.438 Y57.747 E4.79799
G1 X189.228 Y58.252 E4.82918
G1 X189.972 Y58.822 E4.86035
G1 X190.693 Y59.482 E4.89286
G1 X190.788 Y59.577 E4.89733
G1 X191.422 Y60.268 E4.92852
G1 X191.996 Y61.01 E4.95972
G1 X192.503 Y61.799 E4.99092
G1 X192.942 Y62.627 E5.02209
G1 X193.309 Y63.491 E5.05331
G1 X193.601 Y64.382 E5.0845
G1 X193.815 Y65.295 E5.11569
G1 X193.952 Y66.223 E5.14689
G1 X194.004 Y66.979 E5.17209
G1 X194.014 Y67.359 E5.18473
G1 X194.02 Y67.889 E5.20236
G1 X194.02 Y167.073 E8.50123
G1 X194.01 Y167.797 E8.52532
G1 X193.957 Y168.733 E8.5565
G1 X193.825 Y169.662 E8.58771
G1 X193.613 Y170.576 E8.61891
G1 X193.325 Y171.468 E8.65009
G1 X192.962 Y172.333 E8.68129
G1 X192.527 Y173.163 E8.71246
G1 X192.022 Y173.954 E8.74367
G1 X191.452 Y174.699 E8.77487
G1 X190.748 Y175.464 E8.80945
G1 X190.652 Y175.559 E8.81394
G1 X189.958 Y176.189 E8.84512
G1 X189.213 Y176.759 E8.87632
G1 X188.422 Y177.262 E8.90749
G1 X187.591 Y177.697 E8.93869
G1 X186.725 Y178.059 E8.96991
G1 X185.833 Y178.346 E9.00108
G1 X184.918 Y178.556 E9.0323
G1 X183.99 Y178.687 E9.06347
G1 X183.241 Y178.735 E9.08843
G1 X182.754 Y178.747 E9.10464
G1 X182.443 Y178.75 E9.11498
G1 X52.615 Y178.749 E13.43308
G1 X51.911 Y178.738 E13.4565
G1 X50.975 Y178.683 E13.48768
G1 X50.047 Y178.549 E13.51887
G1 X49.133 Y178.336 E13.55008
G1 X48.241 Y178.046 E13.58128
G1 X47.377 Y177.682 E13.61246
G1 X46.547 Y177.245 E13.64366
G1 X45.758 Y176.739 E13.67483
G1 X45.014 Y176.167 E13.70605
G1 X44.263 Y175.475 E13.74001
G1 X44.17 Y175.381 E13.74441
G1 X43.54 Y174.687 E13.77559
G1 X42.971 Y173.942 E13.80677
G1 X42.467 Y173.151 E13.83796
G1 X42.033 Y172.319 E13.86917
G1 X41.671 Y171.454 E13.90036
G1 X41.384 Y170.561 E13.93156
G1 X41.174 Y169.647 E13.96275
G1 X41.043 Y168.719 E13.99392
G1 X40.997 Y168.045 E14.01639
G1 X40.984 Y167.582 E14.0318
G1 X40.98 Y167.049 E14.04952
G1 X40.98 Y67.86 E17.34856
G1 X40.99 Y67.19 E17.37085
G1 X41.044 Y66.254 E17.40203
G1 X41.178 Y65.325 E17.43325
G1 X41.39 Y64.412 E17.46443
G1 X41.679 Y63.519 E17.49564
G1 X42.043 Y62.655 E17.52683
G1 X42.48 Y61.825 E17.55802
G1 X42.985 Y61.035 E17.58921
G1 X43.556 Y60.291 E17.6204
G1 X44.252 Y59.535 E17.65458
G1 X44.347 Y59.441 E17.65903
G1 X45.041 Y58.81 E17.69022
G0 F6000 X45.31 Y59.107
G1 F1200 X46.043 Y58.55 E17.72084
G1 X46.822 Y58.058 E17.75149
G1 X47.64 Y57.636 E17.7821
G1 X48.492 Y57.287 E17.81272
G1 X49.371 Y57.013 E17.84335
G1 X50.27 Y56.816 E17.87396
G1 X51.183 Y56.698 E17.90458
G1 X51.771 Y56.665 E17.92417
G1 X52.25 Y56.653 E17.9401
G1 X52.557 Y56.65 E17.95031
G1 X182.213 Y56.65 E22.26269
G1 X183.066 Y56.661 E22.29106
G1 X183.985 Y56.714 E22.32168
G1 X184.896 Y56.847 E22.3523
G1 X185.792 Y57.058 E22.38292
G1 X186.667 Y57.346 E22.41356
G1 X187.513 Y57.709 E22.44417
G1 X188.324 Y58.144 E22.47478
G1 X189.095 Y58.648 E22.50542
G1 X189.819 Y59.216 E22.53603
G1 X190.41 Y59.765 E22.56286
G1 X190.505 Y59.86 E22.56732
G1 X191.127 Y60.538 E22.59793
G1 X191.688 Y61.268 E22.62855
G1 X192.184 Y62.044 E22.65918
G1 X192.61 Y62.86 E22.6898
G1 X192.964 Y63.71 E22.72042
G1 X193.242 Y64.588 E22.75105
G1 X193.444 Y65.486 E22.78167
G1 X193.567 Y66.399 E22.81231
G1 X193.604 Y66.992 E22.83207
G1 X193.614 Y67.364 E22.84445
G1 X193.62 Y67.889 E22.86191
G1 X193.62 Y167.067 E26.16058
G1 X193.61 Y167.791 E26.18466
G1 X193.557 Y168.711 E26.21531
G1 X193.425 Y169.622 E26.24593
G1 X193.214 Y170.518 E26.27655
G1 X192.927 Y171.392 E26.30714
G1 X192.564 Y172.239 E26.33779
G1 X192.129 Y173.05 E26.3684
G1 X191.626 Y173.821 E26.39902
G1 X191.057 Y174.545 E26.42965
G1 X190.467 Y175.179 E26.45845
G1 X190.371 Y175.274 E26.46295
G1 X189.689 Y175.893 E26.49358
G1 X188.956 Y176.45 E26.5242
G1 X188.178 Y176.941 E26.5548
G1 X187.359 Y177.363 E26.58544
G1 X186.507 Y177.713 E26.61608
G1 X185.629 Y177.987 E26.64667
G1 X184.729 Y178.184 E26.67731
G1 X183.816 Y178.302 E26.70793
G1 X183.229 Y178.335 E26.72748
G1 X182.75 Y178.347 E26.74342
G1 X182.443 Y178.35 E26.75363
G1 X52.621 Y178.349 E31.07153
G1 X51.917 Y178.338 E31.09495
G1 X50.998 Y178.283 E31.12557
G1 X50.087 Y178.149 E31.15619
G1 X49.192 Y177.937 E31.18679
G1 X48.318 Y177.648 E31.2174
G1 X47.472 Y177.284 E31.24803
G1 X46.661 Y176.848 E31.27866
G1 X45.891 Y176.343 E31.30929
G1 X45.168 Y175.773 E31.33991
G1 X44.548 Y175.194 E31.36812
G1 X44.455 Y175.1 E31.37252
G1 X43.836 Y174.418 E31.40315
G1 X43.279 Y173.685 E31.43377
G1 X42.788 Y172.906 E31.4644
G1 X42.366 Y172.088 E31.49502
G1 X42.017 Y171.236 E31.52564
G1 X41.743 Y170.357 E31.55626
G1 X41.546 Y169.458 E31.58687
G1 X41.428 Y168.545 E31.61749
G1 X41.397 Y168.03 E31.63465
G1 X41.384 Y167.578 E31.64969
G1 X41.38 Y167.049 E31.66729
G1 X41.38 Y67.866 E34.96613
G1 X41.39 Y67.196 E34.98841
G1 X41.444 Y66.277 E35.01903
G1 X41.577 Y65.366 E35.04965
G1 X41.789 Y64.47 E35.08028
G1 X42.078 Y63.596 E35.11089
G1 X42.441 Y62.75 E35.14151
G1 X42.877 Y61.939 E35.17214
G1 X43.381 Y61.168 E35.20277
G1 X43.95 Y60.445 E35.23338
G1 X44.533 Y59.819 E35.26183
G1 X44.628 Y59.725 E35.26627
G1 X45.31 Y59.107 E35.29688
G0 F6000 X45.579 Y59.403
G1 F1200 X46.3 Y58.859 E35.32692
G1 X47.065 Y58.38 E35.35694
G1 X47.871 Y57.971 E35.38701
G1 X48.709 Y57.635 E35.41703
G1 X49.573 Y57.374 E35.44705
G1 X50.458 Y57.19 E35.47712
G1 X51.783 Y57.064 E35.52139
G1 X52.254 Y57.052 E35.53706
G1 X52.456 Y57.05 E35.54378
G1 X182.213 Y57.05 E39.85951
G1 X183.06 Y57.061 E39.88769
G1 X183.962 Y57.114 E39.91774
G1 X184.855 Y57.246 E39.94776
G1 X185.733 Y57.457 E39.9778
G1 X186.589 Y57.745 E40.00783
G1 X187.417 Y58.107 E40.03789
G1 X188.209 Y58.541 E40.06793
G1 X188.959 Y59.044 E40.09796
G1 X189.662 Y59.61 E40.12798
G1 X190.127 Y60.048 E40.14923
G1 X190.222 Y60.143 E40.1537
G1 X190.832 Y60.809 E40.18374
G1 X191.381 Y61.526 E40.21377
G1 X191.863 Y62.29 E40.24382
G1 X192.277 Y63.093 E40.27387
G1 X192.617 Y63.929 E40.30388
G1 X192.883 Y64.792 E40.33392
G1 X193.071 Y65.675 E40.36395
G1 X193.204 Y67.006 E40.40844
G1 X193.214 Y67.37 E40.42055
G1 X193.22 Y67.889 E40.43781
G1 X193.22 Y167.062 E43.73632
G1 X193.21 Y167.786 E43.7604
G1 X193.158 Y168.687 E43.79042
G1 X193.026 Y169.581 E43.82047
G1 X192.815 Y170.459 E43.85051
G1 X192.528 Y171.315 E43.88054
G1 X192.166 Y172.143 E43.91059
G1 X191.732 Y172.935 E43.94063
G1 X191.23 Y173.685 E43.97065
G1 X190.664 Y174.389 E44.00069
G1 X190.186 Y174.895 E44.02384
G1 X190.09 Y174.99 E44.02834
G1 X189.42 Y175.596 E44.05838
G1 X188.7 Y176.141 E44.08842
G1 X187.934 Y176.62 E44.11847
G1 X187.129 Y177.029 E44.1485
G1 X186.291 Y177.365 E44.17853
G1 X185.426 Y177.626 E44.20858
G1 X184.542 Y177.809 E44.2386
G1 X183.217 Y177.936 E44.28287
G1 X182.746 Y177.948 E44.29854
G1 X182.544 Y177.95 E44.30526
G1 X52.628 Y177.949 E48.62629
G1 X51.924 Y177.938 E48.64971
G1 X51.022 Y177.884 E48.67976
G1 X50.129 Y177.75 E48.70979
G1 X49.251 Y177.538 E48.73984
G1 X48.395 Y177.249 E48.76988
G1 X47.569 Y176.886 E48.79989
G1 X46.777 Y176.451 E48.82995
G1 X46.028 Y175.947 E48.85997
G1 X45.325 Y175.379 E48.89003
G1 X44.832 Y174.913 E48.9126
G1 X44.739 Y174.819 E48.917
G1 X44.133 Y174.149 E48.94704
G1 X43.588 Y173.429 E48.97708
G1 X43.11 Y172.663 E49.00711
G1 X42.701 Y171.858 E49.03714
G1 X42.364 Y171.02 E49.06718
G1 X42.104 Y170.155 E49.09722
G1 X41.92 Y169.271 E49.12725
G1 X41.797 Y168.016 E49.1692
G1 X41.784 Y167.575 E49.18387
G1 X41.78 Y167.049 E49.20137
G1 X41.78 Y67.872 E52.50001
G1 X41.79 Y67.202 E52.52229
G1 X41.844 Y66.3 E52.55235
G1 X41.977 Y65.407 E52.58238
G1 X42.188 Y64.529 E52.61241
G1 X42.476 Y63.673 E52.64245
G1 X42.839 Y62.846 E52.67249
G1 X43.274 Y62.054 E52.70254
G1 X43.777 Y61.304 E52.73258
G1 X44.344 Y60.602 E52.76259
G1 X44.815 Y60.103 E52.78541
G1 X44.91 Y60.009 E52.78986
G1 X45.579 Y59.403 E52.81988
G1 F1500 E46.31988
;MESH:Flush_Baby_Breakout_Board_Base_Final.stl
G0 F6000 X52.399 Y66.585
G0 X52.399 Y67.67
G0 X115.523 Y68.052
G0 X113.534 Y69.855
G0 X113.534 Y73.145
G0 X115.063 Y74.721
G0 X117.756 Y75.025
;TYPE:WALL-INNER
G1 F1500 E52.81988
G1 F1200 X119.204 Y74.326 E52.87336
G1 X120.208 Y73.069 E52.92687
G1 X120.565 Y71.5 E52.98039
G1 X120.208 Y69.931 E53.0339
G1 X119.204 Y68.674 E53.08741
G1 X118.294 Y68.235 E53.12102
G1 X117.756 Y67.975 E53.14089
G1 X116.144 Y67.975 E53.19451
G1 X115.606 Y68.235 E53.21438
G1 X114.696 Y68.674 E53.24798
G1 X113.692 Y69.931 E53.30149
G1 X113.335 Y71.5 E53.35501
G1 X113.692 Y73.069 E53.40853
G1 X114.696 Y74.326 E53.46204
G1 X116.144 Y75.025 E53.51551
G1 X117.756 Y75.025 E53.56913
G0 F6000 X117.664 Y74.625
;TYPE:WALL-OUTER
G1 F1200 X118.948 Y74.005 E53.61655
G1 X119.838 Y72.891 E53.66398
G1 X120.155 Y71.5 E53.71143
G1 X119.838 Y70.109 E53.75888
G1 X118.948 Y68.995 E53.80631
G1 X117.664 Y68.375 E53.85373
G1 X116.236 Y68.375 E53.90122
G1 X114.952 Y68.995 E53.94865
G1 X114.062 Y70.109 E53.99607
G1 X113.745 Y71.5 E54.04352
G1 X114.062 Y72.891 E54.09098
G1 X114.952 Y74.005 E54.1384
G1 X116.236 Y74.625 E54.18582
G1 X117.664 Y74.625 E54.23332
G0 F6000 X117.762 Y75.053
G1 F1500 E47.73332
G0 F6000 X115.248 Y74.796
G0 X113.534 Y73.145
G0 X113.534 Y69.855
G0 X115.523 Y68.052
G0 X57.927 Y68.052
G0 X59.916 Y69.855
G0 X59.916 Y73.145
G0 X58.688 Y74.209
G0 X57.306 Y75.025
;TYPE:WALL-INNER
G1 F1500 E54.23332
G1 F1200 X58.754 Y74.326 E54.2868
G1 X59.758 Y73.069 E54.34031
G1 X60.115 Y71.5 E54.39382
G1 X59.758 Y69.931 E54.44734
G1 X58.754 Y68.674 E54.50085
G1 X57.844 Y68.235 E54.53446
G1 X57.306 Y67.975 E54.55433
G1 X55.694 Y67.975 E54.60794
G1 X55.156 Y68.235 E54.62782
G1 X54.246 Y68.674 E54.66142
G1 X53.242 Y69.931 E54.71493
G1 X52.977 Y71.094 E54.7546
G1 X52.885 Y71.5 E54.76845
G1 X52.977 Y71.907 E54.78233
G1 X53.242 Y73.069 E54.82197
G1 X54.246 Y74.326 E54.87548
G1 X55.694 Y75.025 E54.92895
G1 X57.306 Y75.025 E54.98257
G0 F6000 X57.214 Y74.625
;TYPE:WALL-OUTER
G1 F1200 X58.498 Y74.005 E55.02999
G1 X59.388 Y72.891 E55.07742
G1 X59.705 Y71.5 E55.12487
G1 X59.388 Y70.109 E55.17232
G1 X58.498 Y68.995 E55.21974
G1 X57.214 Y68.375 E55.26717
G1 X55.786 Y68.375 E55.31466
G1 X54.502 Y68.995 E55.36209
G1 X53.612 Y70.109 E55.40951
G1 X53.295 Y71.5 E55.45696
G1 X53.612 Y72.891 E55.50441
G1 X54.502 Y74.005 E55.55184
G1 X55.786 Y74.625 E55.59926
G1 X57.214 Y74.625 E55.64676
G0 F6000 X57.312 Y75.053
G1 F1500 E49.14676
G0 F6000 X55.654 Y75.197
G0 X53.084 Y73.145
G0 X52.785 Y71.984
G0 X52.786 Y163.012
G0 X54.136 Y160.537
G0 X57.346 Y159.803
G0 X58.667 Y160.847
G0 X59.609 Y162.003
G0 X59.95 Y163.5
G0 X59.609 Y164.997
G0 X58.754 Y166.326
;TYPE:WALL-INNER
G1 F1500 E55.64676
G1 F1200 X59.758 Y165.069 E55.70027
G1 X60.115 Y163.5 E55.75378
G1 X59.758 Y161.931 E55.8073
G1 X58.754 Y160.674 E55.86081
G1 X57.306 Y159.975 E55.91429
G1 X55.694 Y159.975 E55.9679
G1 X54.246 Y160.674 E56.02138
G1 X53.242 Y161.931 E56.07489
G1 X52.977 Y163.093 E56.11453
G1 X52.885 Y163.5 E56.12841
G1 X52.977 Y163.907 E56.14229
G1 X53.242 Y165.069 E56.18193
G1 X54.246 Y166.326 E56.23544
G1 X55.156 Y166.765 E56.26904
G1 X55.694 Y167.025 E56.28891
G1 X57.306 Y167.025 E56.34253
G1 X57.844 Y166.765 E56.3624
G1 X58.754 Y166.326 E56.39601
G0 F6000 X58.498 Y166.005
;TYPE:WALL-OUTER
G1 F1200 X59.388 Y164.891 E56.44343
G1 X59.705 Y163.5 E56.49088
G1 X59.388 Y162.109 E56.53833
G1 X58.498 Y160.995 E56.58576
G1 X57.214 Y160.375 E56.63318
G1 X55.786 Y160.375 E56.68068
G1 X54.502 Y160.995 E56.7281
G1 X53.612 Y162.109 E56.77553
G1 X53.295 Y163.5 E56.82298
G1 X53.612 Y164.891 E56.87043
G1 X54.502 Y166.005 E56.91785
G1 X55.786 Y166.625 E56.96528
G1 X57.214 Y166.625 E57.01277
G1 X58.498 Y166.005 E57.0602
G0 F6000 X58.772 Y166.349
G0 X57.268 Y166.863
G0 X52.58 Y167.15
;TYPE:WALL-INNER
G1 F1200 X52.58 Y163.919 E57.16766
G1 X52.58 Y163.501 E57.17994
G1 X52.58 Y163.083 E57.19221
G1 X52.58 Y71.919 E60.22434
G1 X52.58 Y71.501 E60.23662
G1 X52.58 Y71.084 E60.24887
G1 X52.579 Y68.049 E60.34981
G1 X52.579 Y67.85 E60.35643
G1 X52.778 Y67.85 E60.36071
G1 X55.096 Y67.85 E60.43781
G1 X55.694 Y67.85 E60.45105
G1 X57.306 Y67.85 E60.46784
G1 X57.904 Y67.85 E60.48108
G1 X115.546 Y67.85 E62.39826
G1 X116.144 Y67.85 E62.4115
G1 X117.756 Y67.85 E62.42829
G1 X118.354 Y67.85 E62.44153
G1 X182.42 Y67.85 E64.57238
G1 X182.421 Y166.951 E67.86849
G1 X182.421 Y167.15 E67.87511
G1 X182.222 Y167.15 E67.87939
G1 X57.904 Y167.15 E72.01422
G1 X57.306 Y167.15 E72.02746
G1 X55.694 Y167.15 E72.04426
G1 X55.096 Y167.15 E72.05749
G1 X52.58 Y167.15 E72.14118
G0 F6000 X52.18 Y167.55
;TYPE:WALL-OUTER
G1 F1200 X52.179 Y67.45 E75.47052
G1 X182.82 Y67.45 E79.81565
G1 X182.821 Y167.55 E83.14499
G1 X52.18 Y167.55 E87.49013
G0 F6000 X52.45 Y167.28
G0 X52.69 Y166.76
G0 X52.97 Y166.76
;TYPE:SKIN
G1 F1200 X52.97 Y165.354 E87.53689
G1 X53.997 Y166.638 E87.59158
G1 X54.249 Y166.76 E87.60089
G1 X52.97 Y166.76 E87.64343
G0 F6000 X53.462 Y166.599
G1 F1200 X53.129 Y166.266 E87.6591
G0 F6000 X52.69 Y166.266
G0 X52.69 Y165.191
G0 X52.902 Y165.191
;TYPE:SKIN
G1 F1200 X52.74 Y165.028 E87.66292
G0 F6000 X52.74 Y164.745
